X:1920
T:Galloway Hornpipe (Galway Hornpipe)
M:4/4
O:Scotland
O:Ireland
R:Hornpipe
Z:Richard Robinson 
%%TUNEURL: http://www.leeds.ac.uk/music/Info/RRTuneBk/gettune/0000084c.html
%%ID:0000084c
K:D
D2FA dAFD|CDEF G2FE|\
D2FA dcdf|(3efe (3dcB (3ABA (3GFE|\
D2FA dAFD|CDEF G2FG|
AdcB (3ABA (3GFE|D2F2 D2::\
de|\
f^efg f=edc|B^ABc B2cd|
e^def e=dcB|(3AAA ce a2A2|\
dcde fdAF|GFGA BdcB|AdcB (3ABA (3GFE|D2F2 D2:|
